X: 101029
T: Jack Doyle's Favorite
S: "Crossroads Dance" [Taylor/Mallinson]
Z: B.Black
R: reel
M: 4/4
L: 1/8
K: Ador
eA A2 GA (3Bcd|e2 ae gedB|G3B AEGE|DEGB AGED|
EA A2 GA (3Bcd|e2 ae gedB|G2 Bd gedB|AcBG A3z :|
ea a2 bage|a2 ba gedB|d3e g2 bg|a3b g2 ed|
ea a2 bage|a2 ba gedB|G2 (3Bcd gedB|AcBG A3z :|
